symbols/web/add_chart/materialsymbolssharp/add_chart_wght300gradN25_40px.svg

<svg xmlns="http://www.w3.org/2000/svg" height="40" width="40"><path d="M12.042 27.875h2V17.292h-2Zm6.541 0h2v-15.75h-2Zm6.542 0h2v-5.458h-2ZM5.583 34V6H24v2H7.583v24h24V15.583h2V34Zm23.375-19.917v-3.458H25.5V8.667h3.458v-3.5h2v3.5h3.459v1.958h-3.459v3.458Z"/></svg>

<svg xmlns="http://www.w3.org/2000/svg" height="40" width="40"><path d="M12.042 27.875H14.042V17.292H12.042ZM18.583 27.875H20.583V12.125H18.583ZM25.125 27.875H27.125V22.417H25.125ZM5.583 34V6H24V8H7.583V32H31.583V15.583H33.583V34ZM28.958 14.083V10.625H25.5V8.667H28.958V5.167H30.958V8.667H34.417V10.625H30.958V14.083Z"/></svg>
